!!!COM:      Bach, Johann Sebastian
!!!CDT:      1685/03/31/-1750/07/28/
!!!OPR@@GER: Das wohltemperirte Clavier
!!!OVM@@GER: Band II
!!!OPR@ENG:  Well-Tempered Clavier
!!!OVM@ENG:  Book II
!!!OTL:      Prelude
!!!OKY:      D major
!!!ONM:      no. 5
!!!SCT:      BWV 874
!!!OMV:      1
**kern	**kern	**kern	**kern	**kern
*>[A,A,B,B]	*>[A,A,B,B]	*>[A,A,B,B]	*>[A,A,B,B]	*>[A,A,B,B]
*>norep[A,B]	*>norep[A,B]	*>norep[A,B]	*>norep[A,B]	*>norep[A,B]
*>A	*>A	*>A	*>A	*>A
*clefF4	*clefF4	*	*	*clefG2
*k[f#c#]	*k[f#c#]	*	*	*k[f#c#]
*D:	*D:	*	*	*D:
*M12/8	*M12/8	*	*	*M12/8
*MM90	*MM90	*MM90	*MM90	*MM90
=1-	=1-	=1-	=1-	=1-
4.DD	4.D	1.ryy	1.ryy	8r
.	.	.	.	16d
.	.	.	.	16e
.	.	.	.	16f#
.	.	.	.	16g
4.r	4.r	.	.	8a
.	.	.	.	8f#
.	.	.	.	8a
2.r	2.r	.	.	8dd
.	.	.	.	8a
.	.	.	.	8dd
.	.	.	.	8ff#
.	.	.	.	8dd
.	.	.	.	8ff#
=2	=2	=2	=2	=2
*	*	*staff:14	*	*
*	*	*clefG2	*	*
*	*	*k[f#c#]	*	*
4.r	1.ryy	4.r	1.ryy	4.aa
4.d	.	4.ff#	.	4.aa
4.a	.	8.ff#	.	8.aa
.	.	8.ee	.	8.gg
4.A	.	8.ee	.	8.gg
.	.	8.dd	.	8.ff#
=3	=3	=3	=3	=3
4.d	1.ryy	8dd	1.ryy	4.ff#
.	.	16D	.	.
.	.	16E	.	.
.	.	16F#	.	.
.	.	16G	.	.
4.r	.	8A	.	4.r
.	.	8F#	.	.
.	.	8A	.	.
2.r	.	8d	.	2.r
.	.	8A	.	.
.	.	8d	.	.
.	.	8f#	.	.
.	.	8d	.	.
.	.	8f#	.	.
=4	=4	=4	=4	=4
4.r	1.ryy	4.a	1.ryy	4.r
4.D	.	4.a	.	4.ff#
4.A	.	8.a	.	8.ff#
.	.	8.g	.	8.ee
4.AA	.	8.g	.	8.ee
.	.	8.f#	.	8.dd
=5	=5	=5	=5	=5
4D	1.ryy	8f#	1.ryy	8.dd
.	.	16f#	.	.
.	.	16e	.	8.r
8DD	.	16d	.	.
.	.	16c#	.	.
4D	.	8B	.	4.r
.	.	8d	.	.
8D	.	8B	.	.
4.D	.	8.G#	.	8r
.	.	.	.	16e
.	.	8.r	.	16f#
.	.	.	.	16g#X
.	.	.	.	16a
8r	.	4.r	.	8b
16E	.	.	.	8g#
16D	.	.	.	.
16C#	.	.	.	8b
16BB	.	.	.	.
=6	=6	=6	=6	=6
4C#	1.ryy	8r	1.ryy	8.ee
.	.	16e	.	.
.	.	16d	.	8.r
8CC#	.	16c#	.	.
.	.	16B	.	.
4C#	.	8A	.	4.r
.	.	8c#	.	.
8C#	.	8A	.	.
4.C#	.	8.F#	.	8r
.	.	.	.	16d
.	.	8.r	.	16e
.	.	.	.	16f#
.	.	.	.	16g#
8r	.	4.r	.	8a
16D	.	.	.	8f#
16C#	.	.	.	.
16BB	.	.	.	8a
16AA	.	.	.	.
=7	=7	=7	=7	=7
8BB	1.ryy	4.r	1.ryy	4dd
16F#	.	.	.	.
16E	.	.	.	.
16D	.	.	.	8f#
16C#	.	.	.	.
8BB	.	4f#	.	4dd
8D	.	.	.	.
8BB	.	8f#	.	8dd
8GG#	.	4.e	.	4.dd
8BB	.	.	.	.
8GG#	.	.	.	.
8EE	.	4.r	.	8r
8GG#	.	.	.	16ee
.	.	.	.	16dd
8EE	.	.	.	16cc#
.	.	.	.	16b
=8	=8	=8	=8	=8
8AA	1.ryy	1.r	1.ryy	8cc#
8C#	.	.	.	16a
.	.	.	.	16b
8AA	.	.	.	16cc#
.	.	.	.	16dd
8FF#	.	.	.	8ee
8AA	.	.	.	16dd
.	.	.	.	16cc#
8FF#	.	.	.	16b
.	.	.	.	16a
8BB	.	.	.	8dd
8D	.	.	.	16b
.	.	.	.	16cc#
8BB	.	.	.	16dd
.	.	.	.	16ee
8GG#	.	.	.	8ff#
8BB	.	.	.	16ee
.	.	.	.	16dd
8GG#	.	.	.	16cc#
.	.	.	.	16b
=9	=9	=9	=9	=9
8.C#	1.ryy	8r	1.ryy	[2.ee
.	.	16A	.	.
8.r	.	16B	.	.
.	.	16c#	.	.
.	.	16d	.	.
4.r	.	8e	.	.
.	.	16d	.	.
.	.	16c#	.	.
.	.	16B	.	.
.	.	16A	.	.
8.D	.	8f#	.	4.ee]
.	.	16B	.	.
8.r	.	16c#	.	.
.	.	16d	.	.
.	.	16e	.	.
4.r	.	8f#	.	[4.dd
.	.	16e	.	.
.	.	16d	.	.
.	.	16c#	.	.
.	.	16B	.	.
=10	=10	=10	=10	=10
4E	1.ryy	8g#	1.ryy	4.dd]
.	.	16e	.	.
.	.	16f#	.	.
8EE	.	16g#	.	.
.	.	16a	.	.
4EE	.	8b	.	4.dd
.	.	8g#	.	.
8EE	.	8b	.	.
[4.EE	.	8dd	.	4.gg#X
.	.	8b	.	.
.	.	8dd	.	.
8.EE]	.	8gg#	.	[4.bb
.	.	8dd	.	.
16BB	.	.	.	.
16C#	.	8gg#	.	.
16D	.	.	.	.
=11	=11	=11	=11	=11
4E	1.ryy	4.cc#	1.ryy	8bb]
.	.	.	.	16aa
.	.	.	.	16gg#
8EE	.	.	.	16ff#
.	.	.	.	16ee
4EE	.	4.a	.	8dd#
.	.	.	.	8ff#
8EE	.	.	.	8dd#
4.EE	.	4.f#	.	8a
.	.	.	.	8dd#
.	.	.	.	8a
4.r	.	4.d#X	.	8f#
.	.	.	.	8a
.	.	.	.	8f#
=12	=12	=12	=12	=12
8.r	1.ryy	4e	1.ryy	8g#
.	.	.	.	8f#
16r	.	.	.	.
8E	.	8d	.	8e
8F#	.	4c#	.	4a
8E	.	.	.	.
8D	.	8a	.	8dd
4.E	.	4.a	.	4.cc#
4.EE	.	4.g#X	.	8bW
.	.	.	.	8a
.	.	.	.	8b
=13	=13	=13	=13	=13
4AA	1.ryy	8.a	1.ryy	8a
.	.	.	.	16cc#
.	.	8.r	.	16b
8E	.	.	.	16a
.	.	.	.	16g#
[4.AM	.	4.r	.	8f#
.	.	.	.	16a
.	.	.	.	16g#
.	.	.	.	16f#
.	.	.	.	16e
8A]	.	4.r	.	8d#
16B	.	.	.	8f#
16A	.	.	.	.
16G#	.	.	.	8b
16F#	.	.	.	.
8E#	.	8r	.	[4.b
16F#	.	8g#	.	.
16E#	.	.	.	.
16D#	.	8e#	.	.
16C#	.	.	.	.
=14	=14	=14	=14	=14
4F#	1.ryy	8.c#	1.ryy	8b]
.	.	.	.	16a
.	.	8.r	.	16g#
8FF#	.	.	.	16f#
.	.	.	.	16e
[4.F#m	.	4.r	.	8d
.	.	.	.	16f#
.	.	.	.	16e
.	.	.	.	16d
.	.	.	.	16c#
8F#]	.	4.r	.	8B
16Gn	.	.	.	8d
16F#	.	.	.	.
16E	.	.	.	8gn
16D	.	.	.	.
8C#	.	8r	.	[4.g
16D	.	8e	.	.
16C#	.	.	.	.
16BB	.	8c#	.	.
16AA	.	.	.	.
=15	=15	=15	=15	=15
4D	1.ryy	8.A	1.ryy	8g]
.	.	.	.	16f#
.	.	8.r	.	16e
8DD	.	.	.	16d
.	.	.	.	16c#
[4.DM	.	4.r	.	8B
.	.	.	.	16d
.	.	.	.	16c#
.	.	.	.	16B
.	.	.	.	16A
8D]	.	2.ryy	.	8G#
16E	.	.	.	8B
16D	.	.	.	.
16C#	.	.	.	8e
16BB	.	.	.	.
8AA	.	.	.	8c#
16BB	.	.	.	8e
16C#	.	.	.	.
16D	.	.	.	8a
16E	.	.	.	.
=16	=16	=16	=16	=16
8F#	1.ryy	8.r	1.ryy	4d
8E	.	.	.	.
.	.	16r	.	.
8D	.	8d	.	8b
4E	.	4c#	.	8e
.	.	.	.	8a
8EE	.	8B	.	8g#
8AA	.	2.c#	.	2.a
8C#	.	.	.	.
8E	.	.	.	.
4.A	.	.	.	.
=17:||:	=17:||:	=17:||:	=17:||:	=17:||:
*>B	*>B	*>B	*>B	*>B
4.AA	4.A	1.ryy	1.ryy	8r
.	.	.	.	16ee
.	.	.	.	16dd
.	.	.	.	16cc#
.	.	.	.	16b
4.r	4.r	.	.	8a
.	.	.	.	8cc#
.	.	.	.	8a
2.r	2.r	.	.	8e
.	.	.	.	8a
.	.	.	.	8e
.	.	.	.	8c#
.	.	.	.	8e
.	.	.	.	8c#
=18	=18	=18	=18	=18
*	*staff:4	*staff:4	*	*
*	*clefG2	*	*	*
4.r	4.A	4.ryy	1.ryy	8r
.	.	.	.	16a
.	.	.	.	16b
.	.	.	.	16cc#
.	.	.	.	16dd
4.A	4.c#	4.a	.	8ee
.	.	.	.	8cc#
.	.	.	.	8ee
8.A	8.c#	8.a	.	16aa
.	.	.	.	16ee
.	.	.	.	16ff#
8.r	8.d	8.b	.	16gg#
.	.	.	.	16aa
.	.	.	.	16gg#
4.r	8.d	8.b	.	16aa
.	.	.	.	16ee
.	.	.	.	16ff#
.	8.e	8.cc#	.	16gg#
.	.	.	.	16aa
.	.	.	.	16gg#
=19	=19	=19	=19	=19
8r	8.e	8.cc#	1.ryy	8aa
16e	.	.	.	16gg#
16d	8.ryy	8.r	.	16ff#
16c#	.	.	.	16ee
16B	.	.	.	16dd
8A	4.ryy	4.r	.	16cc#
.	.	.	.	16dd
8c#	.	.	.	16ee
.	.	.	.	16dd
8A	.	.	.	16cc#
.	.	.	.	16b
8E	2.ryy	2.r	.	[2.aT
8A	.	.	.	.
8E	.	.	.	.
8C#	.	.	.	.
8E	.	.	.	.
8C#	.	.	.	.
=20	=20	=20	=20	=20
*	*clefF4	*clefF4	*	*
4.AA	4.ryy	4.r	1.ryy	16a]
.	.	.	.	16b
.	.	.	.	16a
.	.	.	.	16g#
.	.	.	.	16a
.	.	.	.	16e
4.AA	4.E	4.C#	.	16c#
.	.	.	.	16f#
.	.	.	.	16e
.	.	.	.	16d
.	.	.	.	16e
.	.	.	.	16c#
8.AA	8.E	8.C#	.	[2.AT
8.BB	8.ryy	8.D	.	.
8.BB	4.ryy	8.D	.	.
8.C#	.	8.E	.	.
=21	=21	=21	=21	=21
*	*	*staff:2	*	*
*	*	*clefG2	*	*
8.C#	1.ryy	8E	1.ryy	8.A]
.	.	16A	.	.
8.r	.	16B	.	8.r
.	.	16c#	.	.
.	.	16d	.	.
8.r	.	8e	.	4.r
.	.	8c#	.	.
16r	.	.	.	.
8A	.	8e	.	.
8B	.	8.g	.	8r
16c#	.	.	.	16ee
16B	.	8.r	.	16dd
16A	.	.	.	16cc#
16B	.	.	.	16b
8c#	.	4.r	.	8a
16d	.	.	.	8ee
16c#	.	.	.	.
16B	.	.	.	8g
16c#	.	.	.	.
=22	=22	=22	=22	=22
8.d	1.ryy	8r	1.ryy	8.f#
.	.	16d	.	.
8.r	.	16e	.	8.r
.	.	16f#	.	.
.	.	16g	.	.
8.r	.	8a	.	4.r
.	.	8f#	.	.
16r	.	.	.	.
8D	.	8a	.	.
8E	.	8.ccn	.	8r
16F#	.	.	.	16aa
16E	.	8.r	.	16gg
16D	.	.	.	16ff#
16E	.	.	.	16ee
8F#	.	4.r	.	8dd
16G	.	.	.	8aa
16F#	.	.	.	.
16E	.	.	.	8ccn
16F#	.	.	.	.
=23	=23	=23	=23	=23
8G	1.ryy	8.r	1.ryy	[2.b
16B	.	.	.	.
16A	.	16r	.	.
16G	.	8a	.	.
16F#	.	.	.	.
8E	.	4gW	.	.
16G	.	.	.	.
16F#	.	.	.	.
16E	.	8f#	.	.
16D	.	.	.	.
8C#	.	[4.e	.	8b]
8E	.	.	.	16cc#
.	.	.	.	16b
8C#	.	.	.	16a#
.	.	.	.	16b
8AA#	.	4e]	.	[4.cc#
8C#	.	.	.	.
8AA#	.	8g	.	.
=24	=24	=24	=24	=24
8D	1.ryy	[4.f#	1.ryy	8cc#]
8F#	.	.	.	16dd
.	.	.	.	16cc#
8D	.	.	.	16b
.	.	.	.	16cc#
8BB	.	4f#]	.	[4.dd
8D	.	.	.	.
8BB	.	8a	.	.
8E	.	[4.g	.	8dd]
8G	.	.	.	16ee
.	.	.	.	16dd
8E	.	.	.	16cc#
.	.	.	.	16dd
8C#	.	4g]	.	[4.ee
8E	.	.	.	.
8C#	.	8b	.	.
=25	=25	=25	=25	=25
4F#	1.ryy	8.a#	1.ryy	8ee]
.	.	.	.	16gg
.	.	8.r	.	16ff#
8B	.	.	.	16ee
.	.	.	.	16dd#
8A#	.	4.r	.	8ee
8B	.	.	.	8gg
8c#	.	.	.	8dd#X
4F#	.	8.cc#	.	8ee
.	.	.	.	16gg
.	.	8.r	.	16ff#
8B	.	.	.	16ee
.	.	.	.	16dd#X
4A#X	.	4.r	.	8ee
.	.	.	.	16ff#
.	.	.	.	16ee
8B	.	.	.	16dd#X
.	.	.	.	16cc#
=26	=26	=26	=26	=26
4BB	1.ryy	8r	1.ryy	8.dd#
.	.	16ccn	.	.
.	.	16b	.	8.r
8e	.	16a	.	.
.	.	16g#	.	.
8d#	.	8a	.	4.r
8e	.	8ccn	.	.
8f#	.	8g#X	.	.
4B	.	8a	.	8.ff#
.	.	16ccn	.	.
.	.	16b	.	8.r
8e	.	16a	.	.
.	.	16g#X	.	.
4d#X	.	8a	.	4.r
.	.	16b	.	.
.	.	16a	.	.
8e	.	16gn	.	.
.	.	16f#	.	.
=27	=27	=27	=27	=27
16E	1.ryy	8.g	1.ryy	16r
16G	.	.	.	16b
16A	.	.	.	16cc#
16B	.	8.r	.	16dd#
16c#	.	.	.	16ee
16d#	.	.	.	16ff#
8e	.	4.r	.	16gg
.	.	.	.	16ff#
8g	.	.	.	16ee
.	.	.	.	16ddn
8e	.	.	.	16cc#
.	.	.	.	16b
8c#	.	2.r	.	16ee
.	.	.	.	16dd
8e	.	.	.	16cc#
.	.	.	.	16b
8c#	.	.	.	16a
.	.	.	.	16g#
8A	.	.	.	16cc#
.	.	.	.	16b
8c#	.	.	.	16a
.	.	.	.	16gn
8A	.	.	.	16f#
.	.	.	.	16e
=28	=28	=28	=28	=28
*	*	*	*staff:10	*
*	*	*	*clefG2	*
*	*	*	*k[f#c#]	*
16D	1.ryy	2.r	2.ryy	16f#
16F#	.	.	.	16a
16G	.	.	.	16b
16A	.	.	.	16cc#
16B	.	.	.	16dd
16c#	.	.	.	16ee
[4.d	.	.	.	16ff#
.	.	.	.	16ee
.	.	.	.	16dd
.	.	.	.	16cc#
.	.	.	.	16b
.	.	.	.	16a
8d]	.	8r	4ryy	16g#
.	.	.	.	16b
8c#	.	8r	.	16ee
.	.	.	.	16dd
8B	.	16r	8ryy	[8ee
.	.	16gn	.	.
16A#	.	[4.f#	8ryy	16ee]
16c#	.	.	.	16a#
16B	.	.	[4cc#	16cc#
16A#	.	.	.	16dd
16G#	.	.	.	[8ee
16F#	.	.	.	.
=29	=29	=29	=29	=29
8B	1.ryy	16f#]	16cc#]	16ee]
.	.	16ryy	16ryy	16f#
8F#	.	8ryy	8ryy	16g#
.	.	.	.	16a#
8D	.	8ryy	8ryy	16b
.	.	.	.	16cc#
8BB	.	4ryy	4ryy	16dd
.	.	.	.	16cc#
16C#	.	.	.	16b
16D	.	.	.	16an
16E	.	8ryy	8ryy	16gn
16F#	.	.	.	16f#
16G	.	2.ryy	2.ryy	16b
16A	.	.	.	16a
16B	.	.	.	16g
16A	.	.	.	16f#
16G	.	.	.	16e
16F#	.	.	.	16d
16E	.	.	.	16g
16F#	.	.	.	16f#
16G	.	.	.	16e
16F#	.	.	.	16d
16G	.	.	.	16c#
16E	.	.	.	16e
=30	=30	=30	=30	=30
4F#	1.ryy	4.r	1.ryy	8A#
.	.	.	.	16gg
.	.	.	.	16ff#
8FF#	.	.	.	16ee
.	.	.	.	16dd
4FF#	.	4.a#X	.	8cc#
.	.	.	.	8ee
8FF#	.	.	.	8cc#
4.FF#	.	4.e	.	8a#X
.	.	.	.	8cc#
.	.	.	.	8a#
8r	.	[4.c#	.	8e
16r	.	.	.	8a#
16C#	.	.	.	.
16D	.	.	.	8e
16E	.	.	.	.
=31	=31	=31	=31	=31
4F#	1.ryy	8c#]	1.ryy	8.d
.	.	16B	.	.
.	.	16c#	.	8.r
8FF#	.	16d	.	.
.	.	16e	.	.
4FF#	.	8f#	.	4.b
.	.	8d	.	.
8FF#	.	8f#	.	.
4.FF#	.	8b	.	4.dd
.	.	8f#	.	.
.	.	8b	.	.
4.r	.	8dd	.	4.ee#
.	.	8b	.	.
.	.	8dd	.	.
=32	=32	=32	=32	=32
8r	1.ryy	8cc#	1.ryy	4ff#
16r	.	8a#	.	.
16D	.	.	.	.
16E	.	8cc#	.	8een
16F#	.	.	.	.
8G	.	4.b	.	4dd
8F#	.	.	.	.
8E	.	.	.	8gg
4.F#	.	4.b	.	4.dd
4.FF#	.	4.a#X	.	8cc#w
.	.	.	.	8b
.	.	.	.	8cc#
=33	=33	=33	=33	=33
4BB	1.ryy	8.b	1.ryy	8b
.	.	.	.	16dd
.	.	8.r	.	16cc#
8F#	.	.	.	16b
.	.	.	.	16a
[4.BM	.	4.r	.	8g
.	.	.	.	16b
.	.	.	.	16a
.	.	.	.	16g
.	.	.	.	16f#
8B]	.	4.r	.	8e
16cn	.	.	.	8g
16B	.	.	.	.
16A	.	.	.	8ccn
16G	.	.	.	.
8F#	.	8r	.	[4.cc
16G	.	8a	.	.
16F#	.	.	.	.
16E	.	8f#	.	.
16D	.	.	.	.
=34	=34	=34	=34	=34
16G	1.ryy	8d	1.ryy	4cc]
16A	.	.	.	.
16B	.	[4g	.	.
16G	.	.	.	.
16F#	.	.	.	8b
16G	.	.	.	.
8C#X	.	16g]	.	[4.b
.	.	16a	.	.
8E	.	16g	.	.
.	.	16f#	.	.
8C#	.	16e	.	.
.	.	16d	.	.
16F#	.	8c#	.	4b]
16G	.	.	.	.
16A	.	[4f#	.	.
16F#	.	.	.	.
16E	.	.	.	8a
16F#	.	.	.	.
8BB	.	16f#]	.	[4.a
.	.	16g	.	.
8D	.	16f#	.	.
.	.	16e	.	.
8BB	.	16d	.	.
.	.	16c#	.	.
=35	=35	=35	=35	=35
16E	1.ryy	8B	1.ryy	4a]
16F#	.	.	.	.
16G	.	[4e	.	.
16E	.	.	.	.
16D	.	.	.	8g
16E	.	.	.	.
8AA	.	16e]	.	[4.g
.	.	16f#	.	.
8C#	.	16e	.	.
.	.	16d	.	.
8AA	.	16c#	.	.
.	.	16B	.	.
16D	.	8A	.	4g]
16E	.	.	.	.
16F#	.	[4d	.	.
16D	.	.	.	.
16C#	.	.	.	[8f#
16D	.	.	.	.
16BB	.	4.d_	.	8f#]
16Cn	.	.	.	.
16D	.	.	.	8f#
16BB	.	.	.	.
16AA	.	.	.	8ccn
16BB	.	.	.	.
=36	=36	=36	=36	=36
16GG	1.ryy	8d]	1.ryy	[4.b
16AA	.	.	.	.
16BB	.	16g	.	.
16AA	.	16f#	.	.
16GG	.	16e	.	.
16FF#	.	16d	.	.
16EE	.	8g	.	8b]
16FF#	.	.	.	.
16GG	.	8e	.	8cc#X
16FF#	.	.	.	.
16EE	.	[8f#	.	[8dd
16DD	.	.	.	.
[4.AA	.	8f#]	.	8dd]
.	.	8d	.	8b
.	.	8e	.	8cc#
16AA]	.	[4.g	.	[4.ee
16BB	.	.	.	.
16C#	.	.	.	.
16D	.	.	.	.
16E	.	.	.	.
16AA#	.	.	.	.
=37	=37	=37	=37	=37
[4.BB	1.ryy	8g]	1.ryy	8ee]
.	.	8e	.	8cc#
.	.	8f#	.	8dd
16BB]	.	[4.b	.	[4.gg
16AAn	.	.	.	.
16BB	.	.	.	.
16D	.	.	.	.
16C#	.	.	.	.
16E	.	.	.	.
[4.D	.	8b]	.	8gg]
.	.	8a	.	8ff#
.	.	8g	.	8ee
16D]	.	[4.a	.	[4.ff#
16E	.	.	.	.
16D	.	.	.	.
16Cn	.	.	.	.
16BB	.	.	.	.
16AA	.	.	.	.
=38	=38	=38	=38	=38
16GG	1.ryy	8a]	1.ryy	8ff#]
16D	.	.	.	.
16E	.	8g	.	8ee
16F#	.	.	.	.
16G	.	8f#	.	8dd
16A	.	.	.	.
[4.B-	.	8g	.	8ee
.	.	8e	.	8cc#
.	.	8f#	.	8dd
16B-]	.	4.e	.	4.cc#w
16A	.	.	.	.
16B-	.	.	.	.
16G	.	.	.	.
16E	.	.	.	.
16G	.	.	.	.
16A	.	16fn	.	4.r
16G	.	16e	.	.
16A	.	16f	.	.
16Fn	.	16d	.	.
16D	.	16a	.	.
16F	.	[16f	.	.
=39	=39	=39	=39	=39
16G	1.ryy	8fn]	1.ryy	4.b-
16Fn	.	.	.	.
16G	.	8e	.	.
16E	.	.	.	.
16C#	.	[8g	.	.
16E	.	.	.	.
16Fn	.	8g]	.	4.a
16E	.	.	.	.
16F	.	8c#	.	.
16D	.	.	.	.
16BBn	.	[8d	.	.
16D	.	.	.	.
16E	.	8d]	.	4.g
16D	.	.	.	.
16E	.	8c#	.	.
16C#	.	.	.	.
16AA	.	[8e	.	.
16C#	.	.	.	.
16D	.	8e]	.	[4.fn
16C#	.	.	.	.
16D	.	8A	.	.
16Fn	.	.	.	.
16BB-	.	[8d	.	.
16D	.	.	.	.
=40	=40	=40	=40	=40
*	*staff:12	*	*	*
*	*clefG2	*	*	*
2.GG#t	8.B	8.d]	1.ryy	16f]
.	.	.	.	16e
.	.	.	.	16d
.	8.ryy	8.r	.	16c#
.	.	.	.	16d
.	.	.	.	16fn
.	4.ryy	4.r	.	16b
.	.	.	.	16f
.	.	.	.	16e
.	.	.	.	16d
.	.	.	.	16c#
.	.	.	.	16B
4.AA	2.ryy	16r	.	8.c#
.	.	16A	.	.
.	.	16Gn	.	.
.	.	16F#	.	8.r
.	.	16E	.	.
.	.	16D	.	.
16r	.	8.C#	.	4.r
16BB	.	.	.	.
16AA	.	.	.	.
16GGn	.	8.r	.	.
16FF#	.	.	.	.
16EE	.	.	.	.
=41	=41	=41	=41	=41
4.DD	1.ryy	8r	1.ryy	1.r
.	.	16D	.	.
.	.	16E	.	.
.	.	16F#	.	.
.	.	16G	.	.
4.r	.	8A	.	.
.	.	8F#	.	.
.	.	8A	.	.
2.r	.	8d	.	.
.	.	8A	.	.
.	.	8d	.	.
.	.	8f#	.	.
.	.	8d	.	.
.	.	8f#	.	.
=42	=42	=42	=42	=42
4.r	1.ryy	4.a	1.ryy	4.r
4.D	.	4.a	.	4.ff#
4.A	.	8.a	.	8.ff#
.	.	8.g	.	8.ee
4.AA	.	8.g	.	8.ee
.	.	8.f#	.	8.dd
=43	=43	=43	=43	=43
4.D	1.ryy	8.f#	1.ryy	8dd
.	.	.	.	16d
.	.	8.r	.	16e
.	.	.	.	16f#
.	.	.	.	16g
8r	.	4.r	.	8a
16cn	.	.	.	8f#
16B	.	.	.	.
16A	.	.	.	8a
16G	.	.	.	.
8F#	.	2.r	.	8ccn
8A	.	.	.	8a
8F#	.	.	.	8cc
8D	.	.	.	8ff#
8F#	.	.	.	8cc
8D	.	.	.	8ff#
=44	=44	=44	=44	=44
8AA	1.ryy	4.r	1.ryy	4.aa
8D	.	.	.	.
8AA	.	.	.	.
8FF#	.	4.a	.	4.ccn
8AA	.	.	.	.
8FF#	.	.	.	.
4.DD	.	8.a	.	8.cc
.	.	8.g	.	8.b
4.D	.	8.g	.	8.b
.	.	8.f#	.	8.a
=45	=45	=45	=45	=45
4GG	1.ryy	8.g	1.ryy	8b
.	.	.	.	16bb
.	.	8.r	.	16aa
8D	.	.	.	16gg
.	.	.	.	16ff#
4G	.	4.r	.	8ee
.	.	.	.	8gg
8G	.	.	.	8ee
4.G	.	8r	.	8.cc#X
.	.	16A	.	.
.	.	16B	.	8.r
.	.	16c#	.	.
.	.	16d	.	.
8r	.	8e	.	4.r
16AA	.	8c#	.	.
16GG	.	.	.	.
16FF#	.	8e	.	.
16EE	.	.	.	.
=46	=46	=46	=46	=46
4FF#	1.ryy	8.a	1.ryy	8r
.	.	.	.	16aa
.	.	8.r	.	16gg
8F#	.	.	.	16ff#
.	.	.	.	16ee
4F#	.	4.r	.	8dd
.	.	.	.	8ff#
8F#	.	.	.	8dd
4.F#	.	8r	.	8.b
.	.	16G	.	.
.	.	16A	.	8.r
.	.	16B	.	.
.	.	16c#	.	.
8r	.	8d	.	4.r
16GG	.	8B	.	.
16FF#	.	.	.	.
16EE	.	8d	.	.
16DD	.	.	.	.
=47	=47	=47	=47	=47
8EE	1.ryy	4g	1.ryy	8.r
16B	.	.	.	.
16A	.	.	.	16r
16G	.	8d	.	8b
16F#	.	.	.	.
8E	.	4g	.	4b
8G	.	.	.	.
8E	.	8g	.	8b
8C#	.	4.g	.	4.a
8E	.	.	.	.
8C#	.	.	.	.
8AA	.	8r	.	4.r
8C#	.	16a	.	.
.	.	16g	.	.
8AA	.	16f#	.	.
.	.	16e	.	.
=48	=48	=48	=48	=48
8D	1.ryy	8f#	1.ryy	4.r
8F#	.	16d	.	.
.	.	16e	.	.
8D	.	16f#	.	.
.	.	16g	.	.
8BB	.	8a	.	4.dd
8D	.	16g	.	.
.	.	16f#	.	.
8BB	.	16e	.	.
.	.	16d	.	.
8E	.	8g	.	4.b
8G	.	16e	.	.
.	.	16f#	.	.
8E	.	16g	.	.
.	.	16a	.	.
8C#	.	8b	.	[4.ee
8E	.	16a	.	.
.	.	16g	.	.
8C#	.	16f#	.	.
.	.	16e	.	.
=49	=49	=49	=49	=49
8F#	1.ryy	4a	1.ryy	4.ee]
16D	.	.	.	.
16E	.	.	.	.
16F#	.	8g	.	.
16G	.	.	.	.
8A	.	[4.f#	.	4dd
16G	.	.	.	.
16F#	.	.	.	.
16E	.	.	.	8ccn
16D	.	.	.	.
8G	.	4.f#]	.	4b
16E	.	.	.	.
16F#	.	.	.	.
16G	.	.	.	8a
16A	.	.	.	.
8B	.	4e	.	[4.g
16A	.	.	.	.
16G	.	.	.	.
16F#	.	8d	.	.
16E	.	.	.	.
=50	=50	=50	=50	=50
4A	1.ryy	8c#	1.ryy	4.g]
.	.	16A	.	.
.	.	16B	.	.
8AA	.	16c#	.	.
.	.	16d	.	.
4AA	.	8e	.	4.g
.	.	8c#	.	.
8AA	.	8e	.	.
[4.AA	.	8g	.	4.cc#
.	.	8e	.	.
.	.	8g	.	.
8.AA]	.	8cc#	.	[4.ee
.	.	8g	.	.
16E	.	.	.	.
16F#	.	8cc#	.	.
16G	.	.	.	.
=51	=51	=51	=51	=51
4A	1.ryy	4.f#	1.ryy	8ee]
.	.	.	.	16dd
.	.	.	.	16cc#
8AA	.	.	.	16b
.	.	.	.	16a
4AA	.	4.d	.	8g#
.	.	.	.	8b
8AA	.	.	.	8g#
4.AA	.	4.B	.	8d
.	.	.	.	8g#
.	.	.	.	8d
4.r	.	4.G#X	.	8B
.	.	.	.	8d
.	.	.	.	8B
=52	=52	=52	=52	=52
8r	1.ryy	4A	1.ryy	8c#
16r	.	.	.	8B
16FF#	.	.	.	.
16GG	.	8Gn	.	8A
16AA	.	.	.	.
8BB	.	4F#	.	4d
8AA	.	.	.	.
8GG	.	8e	.	[8g
4AA	.	4c#	.	8g]
.	.	.	.	16f#
.	.	.	.	16e
8A	.	[8d	.	8f#
4A	.	8d]	.	4e
.	.	16c#	.	.
.	.	16B	.	.
8AA	.	8c#	.	8a
=53	=53	=53	=53	=53
4D	1.ryy	16d	1.ryy	16f#
.	.	8r	.	16a
.	.	.	.	16b
.	.	8.r	.	16cc#
8A	.	.	.	16dd
.	.	.	.	16ee
[4.d	.	4.r	.	16ff#
.	.	.	.	16ee
.	.	.	.	16dd
.	.	.	.	16cc#
.	.	.	.	16b
.	.	.	.	16a
8d]	.	4.r	.	8g#
16e	.	.	.	8b
16d	.	.	.	.
16c#	.	.	.	8ee
16B	.	.	.	.
8A#	.	8r	.	[4.ee
16B	.	8cc#	.	.
16A#	.	.	.	.
16G#	.	8a#	.	.
16F#	.	.	.	.
=54	=54	=54	=54	=54
4B	1.ryy	8f#	1.ryy	4.ee]
.	.	16g#	.	.
.	.	16a#	.	.
8BB	.	16b	.	.
.	.	16cc#	.	.
[4.B	.	16dd	.	16dd
.	.	8r	.	16cc#
.	.	.	.	16b
.	.	8.r	.	16an
.	.	.	.	16gn
.	.	.	.	16f#
8B]	.	4.r	.	8e
16cn	.	.	.	8g
16B	.	.	.	.
16A	.	.	.	8ccn
16G	.	.	.	.
8F#	.	8r	.	[4.cc
16G	.	8a	.	.
16F#	.	.	.	.
16E	.	8f#	.	.
16D	.	.	.	.
=55	=55	=55	=55	=55
4G	1.ryy	8d	1.ryy	4.cc]
.	.	16e	.	.
.	.	16f#	.	.
8GG	.	16g	.	.
.	.	16a	.	.
[4.G	.	16b	.	16b
.	.	8r	.	16a
.	.	.	.	16g
.	.	8.r	.	16f#
.	.	.	.	16e
.	.	.	.	16d
8G]	.	8.r	.	8c#X
16A	.	.	.	8e
16G	.	16r	.	.
16F#	.	8c#	.	8a
16E	.	.	.	.
8D	.	4d	.	8f#
16E	.	.	.	8a
16F#	.	.	.	.
16G	.	8f#	.	8dd
16A	.	.	.	.
=56	=56	=56	=56	=56
*	*staff:2	*	*staff:2	*
8B	4.ryy	8g	2.ryy	4g
8A	.	8a	.	.
8G	.	8b	.	8ee
4A	8ryy	4f#	.	8a
.	8ryy	.	.	8dd
8AA	8e	[8g	.	8cc#
2.DD	4.ryy	8g]	8ryy	2.dd
.	.	8a	[4a	.
.	.	[8f#	.	.
.	4.d	4.f#]	4.a]	.
==:|	==:|	==:|	==:|	==:|
*-	*-	*-	*-	*-
!!!AFR:  prelude
!!!EFL:  57/96
!!!END:  1994/02/01/
!!!VID:  4019559509 Bach, BWV 874-01
!!!AST:  Baroque
!!!OCY:  Deutschland
!!!ODT:  1742///
!!!PDT:  1801///
!!!EED:  Walter Hewlett
!!!ENC:  Walter Hewlett
!!!YOR:  Bach Gesellschaft Edition xiv
!!!AFT:  enhanced SCORE
!!!RDT:  2011/10/07/ by Andreas Kornstaedt using massScr2hmd
!!!SCA1: Thematisch-systematisches Verzeichnis der musikalischen Werke 
!!!SCA2: Johann Sebastian Bach: Bach-Werke-Verzeichnis (Schmieder)
!!!YEC1: Copyright 1994, 2000 Center for Computer Assisted Research 
!!!YEC2: in the Humanities
!!!YEM1: Rights to all derivative editions reserved.
!!!YEM2: Refer to licensing agreement for further details.
!!!YEN:  United States of America
!!!ref:  @{OTL}, @{SCT}
!!muse2ps: T^@{OTL} @{ONM} in @{OKY}^C^J.S. Bach\n@{SCT}-@{OMV}^
!!muse2ps: u^@{OPR@ENG}, @{OVM@ENG}^j
